assets/features/channel/southeast-asia/BNI.svg

<svg width="80" height="80" viewBox="0 0 80 80" fill="none" xmlns="http://www.w3.org/2000/svg">
<rect width="80" height="80" rx="8" fill="#05565A"/>
<path fill-rule="evenodd" clip-rule="evenodd" d="M20 19.9907H32.4195C31.7708 21.1042 31.2796 23.6078 32.5354 29.2314C33.6515 34.23 36.8797 39.4443 40.2471 43.5659L36.0158 47.0416L20 26.9097V19.9907ZM38.1365 19.9907H60V25.2912C58.3092 24.3023 55.2248 23.3469 50.6968 25.159C43.3902 28.083 42.7643 36.6454 42.7643 36.6454C38.7224 31.7608 36.0639 23.7527 38.1365 19.9907ZM60 32.3216V48.0973C55.0319 49.9834 48.0636 45.0786 46.313 39.2558C43.7751 30.8155 49.7569 27.7694 54.0364 28.6048C57.2347 29.2294 59.0916 31.1362 60 32.3216ZM60 50.687V60.0088H46.6002L49.2865 57.8026C47.5339 58.0164 44.09 57.1917 42.4134 55.0837L37.6965 49.1546L42.0088 45.613C44.6587 48.535 47.1825 50.6344 48.609 51.264C51.6645 52.6126 55.1058 53.2636 60 50.687ZM39.1174 60.0088H24.4794L33.5999 52.5184C34.3463 53.4566 35.0668 54.3634 35.7515 55.2241C37.0944 56.9125 38.2226 58.5802 39.1174 60.0088ZM20.2253 60.0088H20V35.4235C23.4834 39.8019 27.933 45.3952 31.9192 50.4059L20.2253 60.0088Z" fill="#EC6722"/>
</svg>

<svg xmlns="http://www.w3.org/2000/svg" width="80" height="80" fill="none" viewBox="0 0 80 80"><rect width="80" height="80" fill="#05565a" rx="8"/><path fill="#ec6722" fill-rule="evenodd" d="M20 19.99h12.42c-.65 1.114-1.14 3.618.115 9.241 1.117 4.999 4.345 10.213 7.712 14.335l-4.231 3.476L20 26.91zm18.136 0H60v5.301c-1.69-.989-4.775-1.944-9.303-.132-7.307 2.924-7.933 11.486-7.933 11.486-4.042-4.884-6.7-12.892-4.628-16.654M60 32.323v15.775c-4.968 1.886-11.936-3.018-13.687-8.841-2.538-8.44 3.444-11.487 7.723-10.651 3.199.624 5.056 2.531 5.964 3.717m0 18.365v9.322H46.6l2.686-2.206c-1.752.213-5.196-.611-6.873-2.72l-4.716-5.928 4.312-3.542c2.65 2.922 5.173 5.021 6.6 5.651 3.055 1.349 6.497 2 11.391-.577M39.117 60.01H24.48l9.12-7.49 2.153 2.705a52 52 0 0 1 3.365 4.785m-18.892 0H20V35.423l11.92 14.983z" clip-rule="evenodd"/></svg>
